src/images/sprites/svg/hands.svg

<svg width="81" height="54" viewBox="0 0 81 54" fill="none" xmlns="http://www.w3.org/2000/svg">
<path d="M77.3725 22.2647L62.726 21.2446L59.58 20.992C58.745 20.8944 57.9999 21.5323 57.9739 22.3898L56.5531 42.4896C56.4772 43.2531 57.1144 43.9984 57.8774 44.074L60.6919 44.3828L72.6355 45.4212" stroke="black" stroke-miterlimit="10" stroke-linecap="round" stroke-linejoin="round"/>
<path d="M12.0412 2.24881L24.0481 9.90339L27.6794 12.4283C28.3325 12.8638 28.5223 13.7871 28.0868 14.4409L18.1509 30.7605C17.6934 31.4862 16.8425 31.6984 16.0955 31.3129L13.4169 29.7869L2.63374 23.3154" stroke="black" stroke-miterlimit="10" stroke-linecap="round" stroke-linejoin="round"/>
<path d="M27.9256 14.7127C27.9256 14.7127 29.6974 16.1191 31.3513 16.6241C33.0771 17.1511 34.5633 16.6609 36.4629 15.5888C38.3626 14.5168 42.4794 13.6497 44.1273 16.7491" stroke="black" stroke-miterlimit="10" stroke-linecap="round" stroke-linejoin="round"/>
<path d="M57.8458 23.0563C56.038 23.055 54.6178 23.3294 53.4054 22.4084C52.1929 21.4875 50.2314 19.1577 47.9683 18.0733C45.7052 16.9889 42.5372 16.8082 39.9304 18.1364C37.3017 19.5365 36.6245 20.9819 35.9273 23.5226C35.2301 26.0632 35.9571 27.544 36.8919 27.8295C37.8268 28.1149 39.229 27.127 39.5147 26.1915C39.8004 25.2559 41.2745 24.29 42.8706 23.4399C44.4666 22.5898 44.9539 23.0533 45.3534 23.8047C45.7529 24.5561 47.0451 29.5924 49.4061 32.6735C51.767 35.7546 51.4613 37.7855 50.5464 39.2369C49.6535 40.6164 42.077 42.0005 39.4343 41.9016C36.8635 41.8246 35.2603 39.6318 35.2603 39.6318" stroke="black" stroke-miterlimit="10" stroke-linecap="round" stroke-linejoin="round"/>
<path d="M51.2934 38.6002C53.9801 38.5552 56.7126 39.3896 56.7126 39.3896" stroke="black" stroke-miterlimit="10" stroke-linecap="round" stroke-linejoin="round"/>
<path d="M34.4009 41.1505C35.4875 39.9088 35.959 37.85 33.8318 35.5483C31.7045 33.2465 28.9581 30.9131 27.6018 29.9482C26.2455 28.9834 23.8665 30.8531 24.965 32.9194C26.0636 34.9857 29.8307 39.1256 31.1769 40.6381C32.5951 42.1725 33.6838 41.9543 34.4009 41.1505Z" stroke="black" stroke-miterlimit="10" stroke-linecap="round" stroke-linejoin="round"/>
<path d="M24.9732 30.5655C23.8047 29.5006 22.9178 28.2857 20.4609 27.0635" stroke="black" stroke-miterlimit="10" stroke-linecap="round" stroke-linejoin="round"/>
</svg>

<svg xmlns="http://www.w3.org/2000/svg" width="81" height="54" fill="none" viewBox="0 0 81 54">
	<path stroke="#000" stroke-linecap="round" stroke-linejoin="round" stroke-miterlimit="10" d="M77.373 22.265l-14.647-1.02-3.146-.253a1.442 1.442 0 0 0-1.606 1.398l-1.42 20.1c-.077.763.56 1.508 1.323 1.584l2.815.309 11.943 1.038M12.041 2.249l12.007 7.654 3.631 2.525c.654.436.843 1.36.408 2.013L18.15 30.76c-.458.725-1.308.937-2.055.552l-2.68-1.526-10.782-6.472"/>
	<path stroke="#000" stroke-linecap="round" stroke-linejoin="round" stroke-miterlimit="10" d="M27.926 14.713s1.771 1.406 3.425 1.911c1.726.527 3.212.037 5.112-1.035 1.9-1.072 6.016-1.94 7.664 1.16M57.846 23.056c-1.808-.001-3.228.273-4.44-.648-1.213-.92-3.175-3.25-5.438-4.335-2.263-1.084-5.43-1.265-8.038.063-2.628 1.4-3.306 2.846-4.003 5.387-.697 2.54.03 4.021.965 4.306.935.286 2.337-.702 2.623-1.637.285-.936 1.76-1.902 3.356-2.752 1.596-.85 2.083-.387 2.482.365.4.751 1.692 5.787 4.053 8.868 2.361 3.082 2.055 5.112 1.14 6.564-.892 1.38-8.469 2.764-11.112 2.665-2.57-.077-4.174-2.27-4.174-2.27M51.293 38.6c2.687-.045 5.42.79 5.42.79"/>
	<path stroke="#000" stroke-linecap="round" stroke-linejoin="round" stroke-miterlimit="10" d="M34.4 41.15c1.087-1.241 1.559-3.3-.568-5.602-2.128-2.302-4.874-4.635-6.23-5.6-1.357-.965-3.736.905-2.637 2.971 1.099 2.067 4.866 6.207 6.212 7.72 1.418 1.533 2.507 1.315 3.224.511zM24.973 30.566c-1.168-1.065-2.055-2.28-4.512-3.502"/>
</svg>
